frontend/public/svg/health/dropper.svg

<svg width="164" height="136" viewBox="0 0 164 136" fill="none" xmlns="http://www.w3.org/2000/svg">
<g clip-path="url(#clip0)">
<path d="M163.392 23.482C162.923 31.1703 159.796 37.6384 153.296 42.1999C150.793 43.907 148.14 45.3834 145.371 46.6106C138.641 49.691 131.861 52.6624 125.032 55.5249C122.998 56.3781 120.7 56.5941 118.653 57.4184C116.782 58.1462 115.022 59.1327 113.425 60.349C90.2917 78.5254 67.1906 96.7434 44.1222 115.002C42.9029 115.973 41.8065 117.09 40.8574 118.326C37.8265 122.264 33.8105 124.168 29.052 122.965C24.0297 121.694 20.6765 123.7 17.4289 127.041C14.6192 129.928 11.6629 132.711 7.74125 134.14C5.44997 134.975 3.14688 135.633 1.17786 133.587C-0.29365 132.058 -0.0928516 129.414 1.8906 126.78C3.86595 124.056 6.06109 121.498 8.45397 119.132C11.1824 116.535 13.0852 113.715 13.3188 109.878C13.4696 108.767 13.6766 107.665 13.9396 106.577C14.5756 102.727 16.5928 100.044 19.7675 97.5999C26.1641 92.6774 32.0723 87.1188 38.2484 81.9016C57.4178 65.7787 77.4813 50.75 98.3436 36.8869C100.666 35.3745 102.736 33.5046 104.475 31.3461C109.167 25.4667 113.879 19.5938 118.834 13.9375C123.944 8.1033 130.043 3.69848 137.752 1.67762C150.229 -1.59422 157.938 4.3529 161.787 14.7342C162.334 16.3254 162.749 17.9587 163.028 19.618C163.261 20.8217 163.269 22.0695 163.392 23.482ZM103.971 40.9444C103.259 41.3323 103.049 41.4215 102.866 41.5495C79.978 57.5976 57.4642 74.1397 36.0413 92.126C32.0035 95.5167 28.137 99.2401 23.6687 101.946C20.5182 103.855 19.2864 106.057 19.1932 109.386C19.1741 110.057 19.05 110.727 19.05 111.398C19.05 116.078 17.1386 119.842 13.6377 122.88C12.7051 123.689 11.8789 124.621 11.004 125.496L11.4963 125.962C12.5701 124.886 13.674 123.837 14.7123 122.728C18.3714 118.823 22.5484 116.368 28.164 117.763C28.5939 117.87 29.0672 117.797 29.5017 117.894C31.6427 118.368 33.2427 117.763 34.1425 115.641C33.3923 114.277 32.3821 112.981 31.9732 111.515C31.8252 110.956 31.7964 110.373 31.8883 109.803C31.9801 109.232 32.1904 108.687 32.5061 108.202C33.4132 107.139 34.8166 107.743 35.8221 108.578C36.9156 109.485 37.9224 110.5 39.0499 111.547L42.2986 108.833C41.3253 107.507 40.3953 106.381 39.6294 105.152C38.8372 103.878 38.8267 102.521 40.1059 101.535C41.3851 100.548 42.6992 100.944 43.7238 102.021C44.6427 102.984 45.404 104.096 46.42 105.377L49.8683 102.737C48.9494 101.617 48.1094 100.71 47.4045 99.7094C46.1331 97.9018 46.1994 96.1349 47.4766 95.2082C48.9009 94.1738 50.7819 94.798 51.9345 96.7362C52.4937 97.6767 52.9695 98.6677 53.5753 99.8052L58.3011 96.0706C57.1853 94.5801 55.9296 93.2556 55.1341 91.6961C54.9317 91.215 54.836 90.6952 54.8534 90.1734C54.8707 89.651 55.0008 89.139 55.2347 88.6717C55.9672 87.4706 57.4108 87.5094 58.5016 88.3514C59.3363 89.0938 60.0873 89.924 60.7412 90.8291C61.2735 91.471 61.7395 92.1687 62.3256 92.9648L67.0836 88.9658C66.1083 87.5947 65.2036 86.175 64.3722 84.7127C63.7158 83.4105 63.8064 82.021 65.1939 81.1507C66.695 80.2089 67.7701 81.0779 68.5827 82.2718C69.3834 83.4479 70.0548 84.7114 70.8857 86.112L75.7006 82.2475C74.6997 81.0457 73.7776 79.7803 72.9388 78.4598C72.5535 77.829 72.4308 77.0729 72.5968 76.3523C72.7629 75.6323 73.2039 75.0055 73.8261 74.6064C75.1178 73.8917 76.5243 74.3655 77.4813 75.9512C78.1094 76.9922 78.601 78.1172 79.2619 79.4141L84.1425 75.5377C83.1127 74.4147 82.1452 73.2366 81.2454 72.008C80.2445 70.4754 80.5333 68.5523 81.6818 67.7418C82.9072 66.8787 84.4424 67.3283 85.6855 69.0197C86.4771 70.0954 87.1491 71.2584 87.9663 72.5245L92.5981 68.8602C91.5965 67.8487 90.7892 67.0959 90.0547 66.2781C88.6764 64.7438 88.5143 62.8129 89.6229 61.7654C90.8535 60.6036 92.8816 60.9922 94.2875 62.7243C95.0416 63.6536 95.6966 64.6631 96.5138 65.7997L101.591 61.8534C100.918 61.3145 100.496 60.9889 100.087 60.6456C99.6412 60.3059 99.2205 59.9344 98.8287 59.5339C97.5009 58.04 97.4116 56.308 98.574 55.372C99.7685 54.4098 101.493 54.7813 102.627 56.3487C103.316 57.3017 103.856 58.3624 104.635 59.6632L111.861 53.6451L103.971 40.9444ZM118.768 50.9207C125.341 45.6615 133.498 43.3393 141.273 40.1764C143.861 39.1046 146.34 37.7858 148.676 36.2384C156.584 31.0533 158.935 22.2946 154.84 13.8639C151.978 7.97328 147.912 5.93859 141.411 6.95458C134.398 8.05066 128.892 11.7341 124.268 16.8594C120.509 21.0259 116.958 25.378 113.274 29.6133C111.443 31.7182 109.522 33.7444 107.868 35.5572C111.525 40.7101 115.019 45.6359 118.768 50.9201V50.9207Z" fill="black"/>
</g>
<defs>
<clipPath id="clip0">
<rect width="163.428" height="135.206" fill="white" transform="translate(0.136719 0.137817)"/>
</clipPath>
</defs>
</svg>

<svg xmlns="http://www.w3.org/2000/svg" width="164" height="136" fill="none" viewBox="0 0 164 136"><g clip-path="url(#a)"><path fill="#000" d="M163.392 23.482c-.469 7.688-3.596 14.156-10.096 18.718a50 50 0 0 1-7.925 4.41 687 687 0 0 1-20.339 8.915c-2.034.853-4.332 1.07-6.379 1.893a21.5 21.5 0 0 0-5.228 2.931 24793 24793 0 0 0-69.303 54.653 19.2 19.2 0 0 0-3.265 3.324c-3.03 3.938-7.047 5.842-11.805 4.639-5.022-1.271-8.375.735-11.623 4.076-2.81 2.887-5.766 5.67-9.688 7.099-2.291.835-4.594 1.493-6.563-.553-1.472-1.529-1.27-4.173.713-6.807a61.7 61.7 0 0 1 6.563-7.648c2.728-2.597 4.631-5.417 4.865-9.254a33 33 0 0 1 .62-3.301c.637-3.85 2.654-6.533 5.828-8.977 6.397-4.923 12.305-10.481 18.481-15.698a666 666 0 0 1 60.096-45.015 26.3 26.3 0 0 0 6.131-5.54c4.692-5.88 9.404-11.753 14.359-17.41 5.11-5.834 11.209-10.239 18.918-12.26 12.477-3.271 20.186 2.676 24.035 13.057a30.7 30.7 0 0 1 1.241 4.884c.233 1.204.241 2.452.364 3.864m-59.421 17.462c-.712.388-.922.477-1.105.605-22.888 16.049-45.402 32.59-66.825 50.577-4.037 3.39-7.904 7.114-12.372 9.82-3.15 1.909-4.383 4.111-4.476 7.44-.019.671-.143 1.341-.143 2.012 0 4.68-1.911 8.444-5.412 11.482-.933.809-1.76 1.741-2.634 2.616l.492.466c1.074-1.076 2.178-2.125 3.216-3.234 3.66-3.905 7.836-6.36 13.452-4.965.43.107.903.034 1.338.131 2.14.474 3.74-.131 4.64-2.253-.75-1.364-1.76-2.66-2.169-4.126a4.12 4.12 0 0 1 .533-3.313c.907-1.063 2.31-.459 3.316.376 1.094.907 2.1 1.922 3.228 2.969l3.249-2.714c-.974-1.326-1.904-2.452-2.67-3.681-.792-1.274-.802-2.631.477-3.617 1.28-.987 2.593-.591 3.618.486.919.963 1.68 2.075 2.696 3.356l3.448-2.64c-.919-1.12-1.759-2.027-2.464-3.028-1.27-1.807-1.205-3.574.073-4.5 1.424-1.035 3.305-.411 4.458 1.527.559.94 1.034 1.932 1.64 3.07l4.726-3.735c-1.116-1.49-2.371-2.815-3.167-4.375a3.62 3.62 0 0 1 .1-3.024c.733-1.201 2.177-1.163 3.268-.32a15.3 15.3 0 0 1 2.24 2.477c.532.642.998 1.34 1.584 2.136l4.758-4a50 50 0 0 1-2.712-4.252c-.656-1.302-.566-2.692.822-3.562 1.501-.942 2.576-.073 3.389 1.12.8 1.177 1.472 2.44 2.303 3.841l4.815-3.864a36.5 36.5 0 0 1-2.762-3.788 2.825 2.825 0 0 1 .887-3.854c1.292-.714 2.698-.24 3.655 1.345.628 1.041 1.12 2.166 1.78 3.463l4.882-3.876a42 42 0 0 1-2.898-3.53c-1-1.533-.712-3.456.437-4.266 1.225-.863 2.76-.414 4.004 1.278.791 1.075 1.463 2.238 2.28 3.505l4.632-3.665c-1.001-1.011-1.809-1.764-2.543-2.582-1.379-1.534-1.54-3.465-.432-4.513 1.23-1.161 3.259-.773 4.664.96.755.929 1.41 1.938 2.227 3.075l5.077-3.947c-.673-.538-1.095-.864-1.504-1.207q-.67-.511-1.258-1.112c-1.328-1.494-1.417-3.226-.255-4.162 1.195-.962 2.919-.59 4.053.977.689.953 1.229 2.013 2.008 3.314l7.226-6.018zm14.797 9.977c6.573-5.26 14.73-7.582 22.505-10.745a43.7 43.7 0 0 0 7.403-3.938c7.908-5.185 10.259-13.943 6.164-22.374-2.862-5.89-6.928-7.925-13.429-6.91-7.013 1.097-12.519 4.78-17.143 9.905-3.759 4.167-7.31 8.519-10.994 12.754-1.831 2.105-3.752 4.131-5.406 5.944z"/></g><defs><clipPath id="a"><path fill="#fff" d="M.137.138h163.428v135.206H.137z"/></clipPath></defs></svg>
